backend/papyrus-web-graphics/src/main/resources/icons-override/full/obj16/Message_synchCall.svg

<?xml version="1.0" encoding="UTF-8" standalone="no"?>
<svg
   width="18"
   height="16"
   viewBox="0 0 4.7624999 4.2333332"
   version="1.1"
   id="svg8"
   inkscape:version="1.3 (0e150ed, 2023-07-21)"
   sodipodi:docname="Message_synchCall.svg"
   xml:space="preserve"
   xmlns:inkscape="http://www.inkscape.org/namespaces/inkscape"
   xmlns:sodipodi="http://sodipodi.sourceforge.net/DTD/sodipodi-0.dtd"
   xmlns:xlink="http://www.w3.org/1999/xlink"
   xmlns="http://www.w3.org/2000/svg"
   xmlns:svg="http://www.w3.org/2000/svg"
   xmlns:rdf="http://www.w3.org/1999/02/22-rdf-syntax-ns#"
   xmlns:cc="http://creativecommons.org/ns#"
   xmlns:dc="http://purl.org/dc/elements/1.1/"><metadata
     id="metadata24"><rdf:RDF><cc:Work
         rdf:about=""><dc:format>image/svg+xml</dc:format><dc:type
           rdf:resource="http://purl.org/dc/dcmitype/StillImage" /></cc:Work></rdf:RDF></metadata><defs
     id="defs2"><linearGradient
       inkscape:collect="always"
       id="linearGradient1086"><stop
         style="stop-color:#b9c8de;stop-opacity:1;"
         offset="0"
         id="stop1082" /><stop
         style="stop-color:#3d7ebd;stop-opacity:1"
         offset="1"
         id="stop1084" /></linearGradient><linearGradient
       inkscape:collect="always"
       xlink:href="#linearGradient1086"
       id="linearGradient1088-2-2"
       x1="-0.80093998"
       y1="-3.7348001"
       x2="2.5992501"
       y2="4.0184498"
       gradientUnits="userSpaceOnUse" /><linearGradient
       inkscape:collect="always"
       xlink:href="#linearGradient1086"
       id="linearGradient1"
       gradientUnits="userSpaceOnUse"
       x1="-0.80093998"
       y1="-3.7348001"
       x2="2.5992501"
       y2="4.0184498" /><linearGradient
       inkscape:collect="always"
       xlink:href="#linearGradient1086"
       id="linearGradient2"
       gradientUnits="userSpaceOnUse"
       x1="-0.80093998"
       y1="-3.7348001"
       x2="2.5992501"
       y2="4.0184498" /></defs><sodipodi:namedview
     id="base"
     pagecolor="#ffffff"
     bordercolor="#666666"
     borderopacity="1.0"
     inkscape:pageopacity="0"
     inkscape:pageshadow="2"
     inkscape:zoom="38.127368"
     inkscape:cx="10.045278"
     inkscape:cy="7.160211"
     inkscape:document-units="mm"
     inkscape:current-layer="g2"
     inkscape:document-rotation="0"
     showgrid="false"
     inkscape:pagecheckerboard="false"
     inkscape:window-width="2560"
     inkscape:window-height="1387"
     inkscape:window-x="0"
     inkscape:window-y="25"
     inkscape:window-maximized="0"
     units="px"
     inkscape:showpageshadow="2"
     inkscape:deskcolor="#d1d1d1" /><g
     id="g21"><g
       id="g882"><rect
         style="fill:#4b7eb0;fill-opacity:0;stroke:none;stroke-width:0.0756102;stroke-miterlimit:4;stroke-dasharray:none;stroke-opacity:0.827451"
         id="rect840"
         width="2.277241"
         height="1.5517111"
         x="1.2306415"
         y="1.4287663" /><g
         id="g981"
         transform="matrix(0.87114139,0,0,0.87114139,-2.6347727,-0.15218838)"><g
           id="g2"
           transform="translate(-0.28713112,0.09310098)"><g
             id="g1096-0"
             transform="matrix(-0.02137406,0,0,0.02137406,10.69366,-0.29007583)"><g
               inkscape:label="Rendered Gears"
               transform="matrix(9.564118,0,0,9.564118,229.47846,98.421382)"
               id="g1057-5"
               style="fill:url(#linearGradient1088-2-2);fill-opacity:1;stroke:#2d6296;stroke-width:0.83646;stroke-miterlimit:4;stroke-dasharray:none;stroke-opacity:1"><path
                 style="fill:url(#linearGradient1);fill-opacity:1;stroke:#2d6296;stroke-width:0.83646;stroke-miterlimit:4;stroke-dasharray:none;stroke-opacity:1"
                 d="m 3.7348,-0.80094 0.94462,-0.20258 0.31568,0.00993 1.36177,0.64918 V 0.34441 L 4.9951,0.99359 4.67942,1.00352 3.7348,0.80094 3.20725,2.07455 4.01845,2.59925 4.23464,2.8295 4.73852,4.25146 4.25146,4.73852 2.8295,4.23464 2.59925,4.01845 2.07455,3.20725 0.80094,3.7348 1.00352,4.67942 0.99359,4.9951 0.34441,6.35687 H -0.34441 L -0.99359,4.9951 -1.00352,4.67942 -0.80094,3.7348 -2.07455,3.20725 -2.59925,4.01845 -2.8295,4.23464 -4.25146,4.73852 -4.73852,4.25146 -4.23464,2.8295 -4.01845,2.59925 -3.20725,2.07455 -3.7348,0.80094 -4.67942,1.00352 -4.9951,0.99359 -6.35687,0.34441 v -0.68882 l 1.36177,-0.64918 0.31568,-0.00993 0.94462,0.20258 0.52755,-1.27361 -0.8112,-0.5247 -0.21619,-0.23025 -0.50388,-1.42196 0.48706,-0.48706 1.42196,0.50388 0.23025,0.21619 0.5247,0.8112 1.27361,-0.52755 -0.20258,-0.94462 0.00993,-0.31568 0.64918,-1.36177 h 0.68882 l 0.64918,1.36177 0.00993,0.31568 -0.20258,0.94462 1.27361,0.52755 0.5247,-0.8112 0.23025,-0.21619 1.42196,-0.50388 0.48706,0.48706 -0.50388,1.42196 -0.21619,0.23025 -0.8112,0.5247 z"
                 id="path1053-2" /><circle
                 style="fill:url(#linearGradient2);fill-opacity:1;stroke:#2d6296;stroke-width:0.83646;stroke-miterlimit:4;stroke-dasharray:none;stroke-opacity:1"
                 id="path1055-2"
                 cx="0"
                 cy="0"
                 r="2" /></g><circle
               style="opacity:1;fill:#ffffff;fill-opacity:1;stroke:none;stroke-width:15.0695;stroke-miterlimit:4;stroke-dasharray:none;stroke-opacity:1"
               id="path1090-7"
               cx="229.47845"
               cy="98.421379"
               r="4.6329565" /></g><path
             style="fill:#ffffff;stroke:#4d81b4;stroke-width:0.28697982;stroke-linecap:square;stroke-linejoin:bevel;stroke-opacity:1;stroke-dasharray:none"
             d="M 4.2670903,3.6240372 6.7367371,3.6230656"
             id="path1" /><path
             style="fill:#4d81b4;fill-opacity:1;stroke:#4d81b4;stroke-width:0.28697982;stroke-linecap:square;stroke-linejoin:miter;stroke-opacity:1;stroke-dasharray:none"
             d="M 6.7642723,2.7202871 6.7649029,4.5289938 7.8529774,3.5884759 Z"
             id="path2" /></g></g></g></g></svg>

<svg xmlns="http://www.w3.org/2000/svg" xmlns:xlink="http://www.w3.org/1999/xlink" xml:space="preserve" width="16" height="16">
    <defs>
        <linearGradient id="a">
            <stop offset="0" style="stop-color:#b9c8de;stop-opacity:1"/>
            <stop offset="1" style="stop-color:#3d7ebd;stop-opacity:1"/>
        </linearGradient>
        <linearGradient xlink:href="#a" id="b" x1="-.801" x2="2.599" y1="-3.735" y2="4.018" gradientUnits="userSpaceOnUse"/>
        <linearGradient xlink:href="#a" id="c" x1="-.801" x2="2.599" y1="-3.735" y2="4.018" gradientUnits="userSpaceOnUse"/>
        <linearGradient xlink:href="#a" id="d" x1="-.801" x2="2.599" y1="-3.735" y2="4.018" gradientUnits="userSpaceOnUse"/>
    </defs>
    <path fill="none" d="M1.231 1.429h2.277v1.552H1.231z" style="fill:#4b7eb0;fill-opacity:0;stroke:none;stroke-width:.0756102;stroke-miterlimit:4;stroke-dasharray:none;stroke-opacity:.827451"/>
    <g transform="matrix(-.07268 0 0 .07268 24.977 -1.613)">
        <g style="fill:url(#b);fill-opacity:1;stroke:#2d6296;stroke-width:.83646;stroke-miterlimit:4;stroke-dasharray:none;stroke-opacity:1" transform="translate(229.478 98.421)scale(9.56412)">
            <path d="m3.735-.8.944-.204.316.01 1.362.65v.688l-1.362.65-.316.01L3.735.8l-.528 1.274.811.524.217.23.504 1.422-.488.488-1.422-.504-.23-.217-.524-.81L.8 3.734l.203.944-.01.316-.65 1.362h-.688l-.65-1.362-.01-.316.203-.944-1.274-.528-.524.811-.23.217-1.422.504-.488-.488.504-1.422.217-.23.81-.524L-3.734.8l-.944.203-.316-.01-1.362-.65v-.688l1.362-.65.316-.01.944.203.528-1.274-.811-.524-.217-.23-.504-1.422.488-.488 1.422.504.23.217.524.81L-.8-3.734l-.203-.944.01-.316.65-1.362h.688l.65 1.362.01.316-.203.944 1.274.528.524-.811.23-.217 1.422-.504.488.488-.504 1.421-.217.23-.81.525z" style="fill:url(#c);fill-opacity:1;stroke:#2d6296;stroke-width:.83646;stroke-miterlimit:4;stroke-dasharray:none;stroke-opacity:1"/>
            <circle r="2" style="fill:url(#d);fill-opacity:1;stroke:#2d6296;stroke-width:.83646;stroke-miterlimit:4;stroke-dasharray:none;stroke-opacity:1"/>
        </g>
        <circle cx="229.478" cy="98.421" r="4.633" style="opacity:1;fill:#fff;fill-opacity:1;stroke:none;stroke-width:15.0695;stroke-miterlimit:4;stroke-dasharray:none;stroke-opacity:1"/>
    </g>
    <path d="M4.267 3.624h2.47" style="fill:#fff;stroke:#4d81b4;stroke-width:.28698;stroke-linecap:square;stroke-linejoin:bevel;stroke-dasharray:none;stroke-opacity:1" transform="translate(-11.387 -.626)scale(3.40049)"/>
    <path d="M6.764 2.72v1.81l1.089-.94Z" style="fill:#4d81b4;fill-opacity:1;stroke:#4d81b4;stroke-width:.28698;stroke-linecap:square;stroke-linejoin:miter;stroke-dasharray:none;stroke-opacity:1" transform="translate(-11.387 -.626)scale(3.40049)"/>
</svg>
